ubereats/img/ic_select_globe.svg

<svg width="16" height="16" viewBox="0 0 16 16" fill="none" xmlns="http://www.w3.org/2000/svg">
<g id="ic_select_globe">
<path id="Subtract" fill-rule="evenodd" clip-rule="evenodd" d="M8.42005 0.0169201C8.44175 0.0196641 8.46344 0.0224065 8.48514 0.0248571C12.6703 0.277714 16 3.75229 16 8C16 12.2477 12.6703 15.7226 8.48514 15.9751C8.46694 15.9773 8.44875 15.9796 8.43056 15.982C8.36022 15.991 8.28979 16 8.21829 16C8.20419 16 8.19027 15.9982 8.17633 15.9964C8.16426 15.9948 8.15219 15.9933 8.14 15.9929C8.11849 15.9933 8.09704 15.9948 8.07553 15.9964C8.05049 15.9982 8.02537 16 8 16C3.58886 16 0 12.4114 0 8C0 3.58914 3.58886 0 8 0C8.02524 0 8.05024 0.00188406 8.07521 0.00376613C8.09687 0.00539901 8.11852 0.00703038 8.14029 0.00742857C8.15235 0.00703096 8.16435 0.0054037 8.17637 0.00377318C8.19027 0.00188877 8.20419 0 8.21829 0C8.28623 0 8.3532 0.0084674 8.42005 0.0169201ZM8.57028 1.07315C9.42742 1.42886 10.84 3.12458 11.3094 5.37943C10.5554 5.43943 9.42742 5.48315 8.57028 5.49372V1.07315ZM7.42742 5.49349C6.57028 5.48292 5.44971 5.43949 4.68342 5.38092C5.16199 3.15377 6.57028 1.4732 7.42742 1.08806V5.49349ZM5.60515 1.42739C4.79486 2.36281 4.13657 3.70596 3.77515 5.29224C2.65115 5.17024 1.97286 5.02824 1.69943 4.96253C2.49375 3.32233 3.89414 2.05481 5.60515 1.42739ZM0.996579 8.00002C0.996579 7.2663 1.11087 6.55887 1.32087 5.8943C1.51172 5.94573 2.24144 6.12602 3.59201 6.27602C3.5114 6.84716 3.47063 7.42322 3.47001 8.00002C3.47001 8.75516 3.54229 9.47945 3.66515 10.1677C2.50658 10.2934 1.79287 10.4417 1.47258 10.5192C1.15917 9.7162 0.997762 8.86197 0.996579 8.00002ZM3.87885 11.1483C2.91943 11.2486 2.27028 11.3655 1.908 11.4426C2.731 12.8913 4.04103 14.0007 5.60571 14.5732C4.87028 13.7252 4.25628 12.5449 3.87885 11.1483ZM7.42741 14.9123C6.57027 14.5534 5.30799 13.0669 4.79056 11.0629C5.53456 11.0077 6.57027 10.9683 7.42741 10.958V14.9123ZM4.6083 10.0786C5.40372 10.0169 6.5703 9.97289 7.42744 9.96203V6.48975C6.5703 6.47832 5.35401 6.43232 4.5463 6.36832C4.47858 6.89489 4.46772 7.44003 4.46772 8.00003C4.46772 8.72032 4.49887 9.4186 4.6083 10.0786ZM12.2332 5.28051C13.4854 5.13222 14.1186 4.95565 14.2749 4.90765C13.5403 3.42337 12.3003 2.23337 10.7754 1.57251C11.4406 2.49708 11.9506 3.77765 12.2332 5.28051ZM11.4266 6.36509C10.6288 6.43137 9.42742 6.47852 8.57028 6.48966V9.96194C9.42742 9.97223 10.5914 10.0179 11.3769 10.0814C11.4831 9.42052 11.5088 8.72109 11.5088 7.99994C11.5088 7.43852 11.4923 6.89252 11.4266 6.36509ZM8.57028 14.9271V10.958C9.42742 10.9683 10.4709 11.0086 11.2051 11.0651C10.6966 13.096 9.42742 14.5951 8.57028 14.9271ZM12.1469 11.1631C11.8523 12.4766 11.3749 13.5948 10.7754 14.428C12.1588 13.8255 13.3121 12.7947 14.0654 11.4874C13.7526 11.4086 13.132 11.2766 12.1469 11.1631ZM12.324 10.1794C12.5142 8.88284 12.5343 7.56697 12.384 6.26515C13.924 6.08029 14.6057 5.84858 14.6509 5.83258L14.49 5.37829C14.8292 6.21075 15.0039 7.10108 15.0043 8.00001C15.0043 8.90943 14.8243 9.77658 14.5071 10.5743C14.232 10.494 13.54 10.3223 12.324 10.1794Z" fill="#DADADA"/>
</g>
</svg>

<svg width="16" height="16" fill="none" xmlns="http://www.w3.org/2000/svg"><path fill-rule="evenodd" clip-rule="evenodd" d="M8.42.017l.065.008C12.67.278 16 3.752 16 8c0 4.248-3.33 7.723-7.515 7.975a1.67 1.67 0 0 1-.267.025c-.014 0-.028-.002-.042-.004a.368.368 0 0 0-.1 0C8.05 15.998 8.026 16 8 16c-4.411 0-8-3.589-8-8 0-4.41 3.589-8 8-8 .025 0 .05.002.075.004l.065.003a.356.356 0 0 0 .036-.003C8.19.002 8.204 0 8.218 0c.068 0 .135.008.202.017zm.15 1.056c.857.356 2.27 2.052 2.74 4.306a46.64 46.64 0 0 1-2.74.115v-4.42zm-1.143 4.42a48.625 48.625 0 0 1-2.744-.112c.479-2.227 1.887-3.908 2.744-4.293v4.405zM5.605 1.427c-.81.936-1.468 2.279-1.83 3.865-1.124-.122-1.802-.264-2.076-.33a7.028 7.028 0 0 1 3.906-3.535zM.997 8c0-.734.114-1.441.324-2.106.19.052.92.232 2.271.382-.08.571-.121 1.147-.122 1.724 0 .755.072 1.48.195 2.168-1.158.125-1.872.274-2.192.351A6.955 6.955 0 0 1 .997 8zm2.882 3.148c-.96.1-1.609.218-1.971.295a7.031 7.031 0 0 0 3.698 3.13c-.736-.848-1.35-2.028-1.727-3.425zm3.548 3.764c-.857-.359-2.119-1.845-2.636-3.85.744-.054 1.78-.094 2.636-.104v3.954zM4.608 10.08a49.742 49.742 0 0 1 2.82-.117V6.49a50.766 50.766 0 0 1-2.882-.122A12.856 12.856 0 0 0 4.468 8c0 .72.03 1.419.14 2.079zm7.625-4.798c1.252-.149 1.886-.325 2.042-.373a7.04 7.04 0 0 0-3.5-3.335c.666.924 1.176 2.205 1.458 3.708zm-.806 1.084c-.798.066-2 .114-2.857.125v3.472c.857.01 2.021.056 2.807.12.106-.661.132-1.36.132-2.082 0-.561-.017-1.107-.082-1.635zM8.57 14.927v-3.969c.857.01 1.9.05 2.635.107-.508 2.031-1.778 3.53-2.635 3.862zm3.577-3.764c-.295 1.314-.772 2.432-1.372 3.265a7.043 7.043 0 0 0 3.29-2.94c-.312-.08-.933-.211-1.918-.325zm.177-.984c.19-1.296.21-2.612.06-3.914 1.54-.185 2.222-.416 2.267-.432l-.161-.455c.34.833.514 1.723.514 2.622 0 .91-.18 1.777-.497 2.574-.275-.08-.967-.252-2.183-.395z" fill="#DADADA"/></svg>
